X: 29232
T: New High Level, The
R: hornpipe
M: 4/4
K: Gmajor
|:B2FB d2Bd|f=egf _edcB|A2FA c2Ac|fgag f=e_ec|
B2FB d2Bd|f=egf _edcB|ABcd egAc|1 B2BA B2F2:|2 B2BA B2cB||
|:Acfc acfc|Acfc acfc|Bdfd bdfd|Bdfd bdfd|
Acfc acfc|Acfc acfc|gabg ecde|1 fefg f2cB:|2 fefg fe_ec||
|:G2DG B2GB|d2ed cBAG|F2DF A2FA|d2fe dcBA|
G2DG B2GB|d2ed cBAG|F2DF AcAF|1 G2B2 G2D2:|2 G2B2 G2AG||
|:FAdA fAdA|FAdA fAdA|cAce gecA|cAce gecA|
FAdA fAdA|FAdA fAdA|cAce gece|1 dcde d2AG:|2 dcde d=cBA||
|:D2|G2DG B2GB|d2ed cBAG|F2DF A2FA|d^cde d=cBA|
G2DG B2GB|d2ed cBAG|FDFA dcBA|G2B2 G2:|
|:Bc|d2Bd gdBd|e2ce gece|d2Bd gdBd|c2fe dcBc|
d2Bd gdBd|e2ce gece|dgfe dcBA|G2B2 G2:|
|:GA|BGDG B2GB|d2ed cBAG|AFDF A2FA|dcde dcBA|
BGDG B2GB|d2ed cBAG|FDFA dcBA|G2B2 G2:|
|:Bd|gdBd gdBd|e2ce gece|d2Bd gdBd|A2fe dcBc|
d2Bd gdBd|e2ce gece|dgfe dcBA|G2B2 G2:|

